svg/transport/low_beam_headlights_fill.svg

<?xml version="1.0" encoding="UTF-8"?>
<svg width="24px" height="24px" viewBox="0 0 24 24" version="1.1" xmlns="http://www.w3.org/2000/svg" xmlns:xlink="http://www.w3.org/1999/xlink">
    <title>low_beam_headlights_fill</title>
    <g id="页面-1" stroke="none" stroke-width="1" fill="none" fill-rule="evenodd">
        <g id="Transport" transform="translate(-48.000000, -240.000000)" fill-rule="nonzero">
            <g id="low_beam_headlights_fill" transform="translate(48.000000, 240.000000)">
                 <path d="M24,0 L24,24 L0,24 L0,0 L24,0 Z M12.5934901,23.257841 L12.5819402,23.2595131 L12.5108777,23.2950439 L12.4918791,23.2987469 L12.4918791,23.2987469 L12.4767152,23.2950439 L12.4056548,23.2595131 C12.3958229,23.2563662 12.3870493,23.2590235 12.3821421,23.2649074 L12.3780323,23.275831 L12.360941,23.7031097 L12.3658947,23.7234994 L12.3769048,23.7357139 L12.4804777,23.8096931 L12.4953491,23.8136134 L12.4953491,23.8136134 L12.5071152,23.8096931 L12.6106902,23.7357139 L12.6232938,23.7196733 L12.6232938,23.7196733 L12.6266527,23.7031097 L12.609561,23.275831 C12.6075724,23.2657013 12.6010112,23.2592993 12.5934901,23.257841 L12.5934901,23.257841 Z M12.8583906,23.1452862 L12.8445485,23.1473072 L12.6598443,23.2396597 L12.6498822,23.2499052 L12.6498822,23.2499052 L12.6471943,23.2611114 L12.6650943,23.6906389 L12.6699349,23.7034178 L12.6699349,23.7034178 L12.678386,23.7104931 L12.8793402,23.8032389 C12.8914285,23.8068999 12.9022333,23.8029875 12.9078286,23.7952264 L12.9118235,23.7811639 L12.8776777,23.1665331 C12.8752882,23.1545897 12.8674102,23.1470016 12.8583906,23.1452862 L12.8583906,23.1452862 Z M12.1430473,23.1473072 C12.1332178,23.1423925 12.1221763,23.1452606 12.1156365,23.1525954 L12.1099173,23.1665331 L12.0757714,23.7811639 C12.0751323,23.7926639 12.0828099,23.8018602 12.0926481,23.8045676 L12.108256,23.8032389 L12.3092106,23.7104931 L12.3186497,23.7024347 L12.3186497,23.7024347 L12.3225043,23.6906389 L12.340401,23.2611114 L12.337245,23.2485176 L12.337245,23.2485176 L12.3277531,23.2396597 L12.1430473,23.1473072 Z" id="MingCute" fill-rule="nonzero"></path>
                <path d="M16.6123,3.95558 C13.865,2.73456 10.5614,4.2344 10.2314,7.42932 C10.0969,8.73095 10,10.2693 10,12 C10,13.7307 10.0969,15.269 10.2314,16.5707 C10.5614,19.7656 13.865,21.2654 16.6123,20.0444 L16.8371,19.9445 C19.9767,18.5491 22,15.4357 22,12 C22,8.5643 19.9767,5.45086 16.8371,4.05549 L16.6123,3.95558 Z M8.37141,6.92848 C8.8842,6.72336 9.13361,6.14139 8.9285,5.62861 C8.72339,5.11583 8.14141,4.86641 7.62863,5.07152 L2.62863,7.07152 C2.11585,7.27664 1.86643,7.85861 2.07155,8.37139 C2.27666,8.88417 2.85863,9.13359 3.37141,8.92848 L8.37141,6.92848 Z M8.9285,10.6286 C9.13361,11.1414 8.8842,11.7234 8.37141,11.9285 L3.37141,13.9285 C2.85863,14.1336 2.27666,13.8842 2.07155,13.3714 C1.86643,12.8586 2.11585,12.2766 2.62863,12.0715 L7.62863,10.0715 C8.14141,9.86641 8.72339,10.1158 8.9285,10.6286 Z M8.37141,16.9285 C8.8842,16.7234 9.13361,16.1414 8.9285,15.6286 C8.72339,15.1158 8.14141,14.8664 7.62863,15.0715 L2.62863,17.0715 C2.11585,17.2766 1.86643,17.8586 2.07155,18.3714 C2.27666,18.8842 2.85863,19.1336 3.37141,18.9285 L8.37141,16.9285 Z" id="形状" fill="#09244B"></path>
            </g>
        </g>
    </g>
</svg>

<svg xmlns="http://www.w3.org/2000/svg" width="24" height="24"><g fill="none" fill-rule="nonzero"><path d="M24 0v24H0V0h24ZM12.593 23.258l-.011.002-.071.035-.02.004-.014-.004-.071-.035c-.01-.004-.019-.001-.024.005l-.004.01-.017.428.005.02.01.013.104.074.015.004.012-.004.104-.074.012-.016.004-.017-.017-.427c-.002-.01-.009-.017-.017-.018Zm.265-.113-.013.002-.185.093-.01.01-.003.011.018.43.005.012.008.007.201.093c.012.004.023 0 .029-.008l.004-.014-.034-.614c-.003-.012-.01-.02-.02-.022Zm-.715.002a.023.023 0 0 0-.027.006l-.006.014-.034.614c0 .012.007.02.017.024l.015-.002.201-.093.01-.008.004-.011.017-.43-.003-.012-.01-.01-.184-.092Z"/><path fill="#09244B" d="M16.612 3.956c-2.747-1.221-6.05.278-6.38 3.473A44.563 44.563 0 0 0 10 12c0 1.73.097 3.269.231 4.57.33 3.196 3.634 4.695 6.381 3.474l.225-.1a8.694 8.694 0 0 0 0-15.889l-.225-.1Zm-8.24 2.972a1 1 0 0 0-.743-1.856l-5 2a1 1 0 0 0 .742 1.856l5-2Zm.556 3.7a1 1 0 0 1-.557 1.3l-5 2a1 1 0 1 1-.742-1.857l5-2a1 1 0 0 1 1.3.558Zm-.557 6.3a1 1 0 0 0-.742-1.857l-5 2a1 1 0 0 0 .742 1.857l5-2Z"/></g></svg>
